X:516
T:B516-  Who List to Lead a Soldeir's Life
Q:1/4=120
L:1/4
M:6/4
K:D
d|f3/2g/af3/2e/d|e2cA2e|f3/2g/ad3/2e/d|(e3e2)e|\
f3/2g/af3/2e/d|e2dA3/2G/F|GABAB3/2c/|(d3d2)|]

